X: 21303
M: 6/8
L: 1/8
K: D
V: 1 name="3"
a |\
a^ga aga | f2d dcd | e2e efg | b2a afg |\
a^ga aga | f2d dcd | egf edc | dAf d2 H|]
e3- efe | b3 bge | d2d cBc | (e3 "^D.C."d2) |]
f |\


